X: 19317
T: Jack Frost
R: hornpipe
M: 4/4
K: Gmajor
|:d>^c|"G"e>dB>G D2G>F|"Am"^D>EA>B c2A>F|"D7"F>Ae>c c>AF>D|"G"G>Bd>e d2d^c|
"G"e>dB>G D2G>F|"Am"^D>EA>B c2A>F|"D7"F>Af>e (3ded (3cBA|"G"G2 g2 g2:|
|:d>^c|"D7"c>AF>A d2e^d|"G"d>BG>B D2d^c|"D7"c>AF>A D>EF>G|"D7"A>Bc>^c d2d^c|
"D7"c>AF>A d2e^d|"G"d>BG>B D2d^c|"D7"c>df>e (3ded (3cBA|"G"G2 g2 g2:|

